X:1
T:Title
L:1/8
Q:1/4=140
M:6/8
K:Ab
V:1 treble nm="Grand Piano"
V:1
 C6- | C2 =E D2 C | F6- | F2 A G2 F | c6- | c2 B d2 B | G6- | G2 A c2 A | F6- | F2 G B2 G | =E6- | %11
w: ????~??????|||||||||||
 E6 | C6 | c6- | c2 B A2 G | F6- | F2 B B2 =A | B6- | B2 A G2 F | E6- | E2 A G2 F | E6 | d3 B3 | %23
w: ||||||||||||
 c3- c2 d | c6- | c3/2c3/2 A3/2G3/2 | F3 C3 | c3- c3/2d3/2 | B6- | B3/2B3/2 G3/2F3/2 | =E3 C3 | %31
w: ||||||||
 B3- B3/2c3/2 | A6- | A3/2A3/2 G3/2F3/2 | =E3 C3 | A3- A3/2B3/2 | G6- | G3/2G3/2 A3/2B3/2 | %38
w: |||||||
 c3/2d3/2 B3/2d3/2 | c6- | c3/2c3/2 A3/2G3/2 | F3 C3 | c3- c3/2d3/2 | B6- | B3/2B3/2 G3/2F3/2 | %45
w: |||||||
 =E3 C3 | B3- B3/2c3/2 | A6- | A3/2A3/2 G3/2F3/2 | =E3 C3 | A3- A3/2B3/2 | G6- | G2 G A2 B | %53
w: ||||||||
 c2 B A2 G | F6- | F6 |] %56
w: |||

